images/themes/sigpacgo/nodpi/ic_udp_receiver_black_24dp.svg

<svg xmlns="http://www.w3.org/2000/svg" xmlns:xlink="http://www.w3.org/1999/xlink" width="24" height="24" viewBox="0 0 24 24">
<path fill-rule="nonzero" fill="rgb(0%, 6.666667%, 16.862745%)" fill-opacity="1" d="M 17 22 L 15.601562 20.601562 L 20.148438 16 L 15.601562 11.398438 L 17 10 L 23 16 Z M 7 22 L 1 16 L 7 10 L 8.398438 11.398438 L 3.851562 16 L 8.398438 20.601562 Z M 8 17 C 7.714844 17 7.480469 16.902344 7.285156 16.710938 C 7.09375 16.519531 7 16.285156 7 16 C 7 15.714844 7.09375 15.480469 7.285156 15.285156 C 7.480469 15.09375 7.714844 15 8 15 C 8.285156 15 8.519531 15.09375 8.714844 15.285156 C 8.90625 15.480469 9 15.714844 9 16 C 9 16.285156 8.90625 16.519531 8.714844 16.710938 C 8.519531 16.902344 8.285156 17 8 17 Z M 12 17 C 11.714844 17 11.480469 16.902344 11.289062 16.710938 C 11.097656 16.519531 11 16.285156 11 16 C 11 15.714844 11.097656 15.480469 11.289062 15.285156 C 11.480469 15.09375 11.714844 15 12 15 C 12.285156 15 12.519531 15.09375 12.714844 15.285156 C 12.90625 15.480469 13 15.714844 13 16 C 13 16.285156 12.90625 16.519531 12.714844 16.710938 C 12.519531 16.902344 12.285156 17 12 17 Z M 16 17 C 15.714844 17 15.480469 16.902344 15.289062 16.710938 C 15.097656 16.519531 15 16.285156 15 16 C 15 15.714844 15.097656 15.480469 15.289062 15.285156 C 15.480469 15.09375 15.714844 15 16 15 C 16.285156 15 16.519531 15.09375 16.710938 15.285156 C 16.902344 15.480469 17 15.714844 17 16 C 17 16.285156 16.902344 16.519531 16.710938 16.710938 C 16.519531 16.902344 16.285156 17 16 17 Z M 16 17 "/>
<path fill="none" stroke-width="1" stroke-linecap="butt" stroke-linejoin="miter" stroke="rgb(0%, 0%, 0%)" stroke-opacity="1" stroke-miterlimit="4" d="M 5.5 2 L 5.5 6.5 C 5.496094 7.484375 5.496094 7.5 6.5 7.5 L 7.5 7.5 C 8.515625 7.519531 8.5 7.503906 8.5 6.5 L 8.5 2 "/>
<path fill="none" stroke-width="1" stroke-linecap="butt" stroke-linejoin="miter" stroke="rgb(0%, 0%, 0%)" stroke-opacity="1" stroke-miterlimit="4" d="M 12.5 7.5 L 10.5 7.5 L 10.5 2.5 L 12.5 2.5 C 13.507812 2.507812 13.5 2.496094 13.5 3.5 L 13.5 6.5 C 13.496094 7.5 13.503906 7.5 12.5 7.5 Z M 12.5 7.5 "/>
<path fill="none" stroke-width="1" stroke-linecap="butt" stroke-linejoin="miter" stroke="rgb(0%, 0%, 0%)" stroke-opacity="1" stroke-miterlimit="4" d="M 15.5 8 L 15.5 2.5 L 17.5 2.5 C 18.5 2.5 18.5 2.496094 18.5 3.5 L 18.5 4.5 C 18.503906 5.496094 18.503906 5.5 17.5 5.5 L 16 5.5 "/>
</svg>

<?xml version="1.0" encoding="UTF-8" standalone="no"?>
<svg
   width="24"
   height="24"
   version="1.1"
   id="svg4"
   sodipodi:docname="ic_udp_receiver_black_24dp.svg"
   inkscape:version="1.4 (e7c3feb100, 2024-10-09)"
   xmlns:inkscape="http://www.inkscape.org/namespaces/inkscape"
   xmlns:sodipodi="http://sodipodi.sourceforge.net/DTD/sodipodi-0.dtd"
   xmlns="http://www.w3.org/2000/svg"
   xmlns:svg="http://www.w3.org/2000/svg">
  <defs
     id="defs4" />
  <sodipodi:namedview
     id="namedview4"
     pagecolor="#ffffff"
     bordercolor="#000000"
     borderopacity="0.25"
     inkscape:showpageshadow="2"
     inkscape:pageopacity="0.0"
     inkscape:pagecheckerboard="0"
     inkscape:deskcolor="#d1d1d1"
     inkscape:zoom="48.416667"
     inkscape:cx="12"
     inkscape:cy="12"
     inkscape:window-width="2560"
     inkscape:window-height="1368"
     inkscape:window-x="0"
     inkscape:window-y="0"
     inkscape:window-maximized="1"
     inkscape:current-layer="svg4" />
  <path
     d="m17 22-1.4-1.4 4.55-4.6-4.55-4.6 1.4-1.4 6 6zm-10 0-6-6 6-6 1.4 1.4-4.55 4.6 4.55 4.6zm1-5q-0.425 0-0.713-0.288-0.287-0.287-0.287-0.712t0.287-0.713q0.288-0.287 0.713-0.287t0.713 0.287q0.287 0.288 0.287 0.713t-0.287 0.712q-0.288 0.288-0.713 0.288zm4 0q-0.425 0-0.712-0.288-0.288-0.287-0.288-0.712t0.288-0.713q0.287-0.287 0.712-0.287t0.713 0.287q0.287 0.288 0.287 0.713t-0.287 0.712q-0.288 0.288-0.713 0.288zm4 0q-0.425 0-0.712-0.288-0.288-0.287-0.288-0.712t0.288-0.713q0.287-0.287 0.712-0.287t0.712 0.287q0.288 0.288 0.288 0.713t-0.288 0.712q-0.287 0.288-0.712 0.288z"
     id="path1"
     style="fill:#00112b" />
  <g
     fill="none"
     stroke="#000"
     stroke-width="1px"
     id="g4">
    <path
       d="m5.5 2v4.5c-0.00494 0.98532-0.00369 1 1 1h1c1.0153 0.018005 1 0.00369 1-1v-4.5"
       id="path2" />
    <path
       d="m12.5 7.5h-2v-5h2c1.0065 0.00758 1-0.00369 1 1v3c-0.0057 1.0006 0.0037 1-1 1z"
       id="path3" />
    <path
       d="m15.5 8v-5.5h2c0.99857-0.0019 1-0.00369 1 1v1c0.0052 0.99719 0.0037 1-1 1h-1.5"
       id="path4" />
  </g>
</svg>
